packages/foundations/assets/icons/functional/images/transportation/electric_car_20_inverted.svg

<svg width="20" height="20" viewBox="0 0 20 20" fill="none" xmlns="http://www.w3.org/2000/svg">
<g clip-path="url(#clip0_2214_6730)">
<path fill-rule="evenodd" clip-rule="evenodd" d="M6.49719 14.2422L6.49044 15.4989H3.99717V13.3271C3.64139 12.9207 3.4331 12.4558 3.3723 11.9325L3.10119 9.50116H1.99719V7.50116H3.69319L4.45435 4.06953C4.69237 3.26446 5.39719 2.50116 6.29172 2.50116L10.647 2.50216C11.1164 2.50216 11.497 2.88272 11.497 3.35216C11.497 3.8216 11.1164 4.20216 10.647 4.20216L6.04045 4.20116L5.39719 7.50116C7.79616 7.50049 9.32949 7.50016 9.99719 7.50016C10 6.3944 10.8953 5.50709 11.9966 5.5033C11.9972 4.94887 12.4449 4.50116 12.9972 4.50116H15.0093C15.5221 4.50116 15.9972 4.97458 16.0086 5.50316C17.0629 5.5033 18.0029 6.44893 18.0029 7.50329L17.9972 15.4989C17.9972 16.6034 17.1018 17.4989 15.9972 17.4989H11.998C10.8934 17.4989 9.99796 16.6034 9.99796 15.4989L9.99719 14.5012C8.83053 14.5012 7.66386 14.4148 6.49719 14.2422ZM15.9972 7.22498C15.7377 7.22498 14.4046 7.22498 11.998 7.22498C11.8559 7.22498 11.698 7.33091 11.698 7.52501C11.698 7.73601 11.698 10.394 11.698 15.4989C11.698 15.6409 11.8293 15.7871 11.998 15.7989C12.3298 15.7989 13.6629 15.7989 15.9972 15.7989C16.1392 15.7989 16.2972 15.6935 16.2972 15.4989C16.2972 15.1582 16.2972 12.5002 16.2972 7.52501C16.2972 7.38299 16.1491 7.22498 15.9972 7.22498ZM8.23707 10.5598C7.90991 10.6939 7.6858 11.0372 7.75154 11.3413C7.84374 11.7103 7.94495 12.1129 8.05519 12.5491C8.1415 12.7559 8.395 13.0012 8.63435 13.0013C9.00457 13.0012 9.45885 13.0012 9.99719 13.0012V11.5092L9.33219 11.5098L9.18968 10.9715C9.08953 10.6689 8.60512 10.409 8.23707 10.5598ZM14.6235 8.56995C14.9698 8.72556 15.1817 9.12996 15.0003 9.56144C14.8194 9.96211 14.6357 10.3583 14.4492 10.7502L14.751 10.7512C15.2611 10.7512 15.6736 11.2783 15.435 11.8087C15.1486 12.4594 14.7887 13.216 14.3554 14.0784C14.1856 14.4562 13.7416 14.6248 13.3639 14.455C13.0175 14.2993 12.7926 13.8723 12.9873 13.4634C13.1025 13.1837 13.3038 12.7793 13.5912 12.2502L13.2909 12.2512C12.7809 12.2512 12.3787 11.715 12.6068 11.1938C12.8229 10.7031 13.1646 9.95409 13.632 8.94671C13.8018 8.56888 14.2457 8.4002 14.6235 8.56995ZM4.01591 10.4164C4.10908 10.0128 4.5118 9.76118 4.9154 9.85435L6.47457 10.2213C6.8201 10.3521 7.02443 10.7213 6.93902 11.0913C6.84584 11.4949 6.44312 11.7465 6.03953 11.6533L4.48035 11.2863C4.13483 11.1556 3.93049 10.7864 4.01591 10.4164Z" fill="#1A1C1F"/>
</g>
<defs>
<clipPath id="clip0_2214_6730">
<rect width="20" height="20" fill="white"/>
</clipPath>
</defs>
</svg>

<svg xmlns="http://www.w3.org/2000/svg" width="20" height="20" fill="none"><g clip-path="url(#a)"><path fill="#1A1C1F" fill-rule="evenodd" d="M6.497 14.242 6.49 15.5H3.997v-2.172a2.5 2.5 0 0 1-.625-1.395l-.27-2.43H1.996v-2h1.696l.761-3.432c.238-.806.943-1.569 1.838-1.569l4.355.001a.85.85 0 0 1 0 1.7H6.04l-.643 3.3 4.6-.002a2 2 0 0 1 2-1.997c0-.554.448-1.002 1-1.002h2.012c.513 0 .988.474 1 1.002 1.054 0 1.994.946 1.994 2l-.006 7.996a2 2 0 0 1-2 2h-3.999a2 2 0 0 1-2-2V14.5q-1.75 0-3.5-.259m9.5-7.017h-3.999c-.142 0-.3.106-.3.3v7.974c0 .142.131.288.3.3h4c.141 0 .3-.105.3-.3V7.525c0-.142-.149-.3-.3-.3m-7.76 3.335c-.327.134-.551.477-.485.781l.303 1.208c.087.207.34.452.58.452h1.362V11.51h-.665l-.142-.537c-.1-.303-.585-.563-.953-.412m6.387-1.99c.346.156.558.56.376.991q-.27.601-.55 1.19h.301c.51 0 .923.527.684 1.058q-.429.975-1.08 2.27a.75.75 0 0 1-.991.376c-.347-.156-.571-.583-.377-.992q.173-.42.604-1.213l-.3.001a.755.755 0 0 1-.684-1.057q.324-.736 1.025-2.247a.75.75 0 0 1 .992-.377M4.015 10.416a.75.75 0 0 1 .9-.562l1.559.367a.75.75 0 0 1-.435 1.432l-1.56-.367a.75.75 0 0 1-.464-.87" clip-rule="evenodd"/></g><defs><clipPath id="a"><path fill="#fff" d="M0 0h20v20H0z"/></clipPath></defs></svg>
